X: 178
T: I Struck the Enemy
C: Teton Sioux band 1911-1914
N: Derived from sioux173.krn
O: South Dakota, U.S.A.
N: Teton Sioux Music by Frances Densmore, 1918
Z: transcribed to **kern format by Craig Sapp
L: 1/8
M: 2/4
Q: 1/4=58
K: Ab clef=bass
%%linebreak <none>
C [I:setbarnb 1]| 
E< C E/ C3/ | 
B,2B,/ A, C/ | 
C< B, C/ B,3/ ||  
[M:3/4]A,2A,4 ||  
[M:2/4]B,2C/ B,3/ ||  
[M:3/4]A,2E, C,E,2 ||  
[M:2/4]A,3B, | 
E,4 | 
C, C, C, B,, | 
A,,4- | 
A,,3C | 
(3E C C (3(E C) C | 
B,2(3(B, A,) A, ||  
[M:3/4](3(C B,) B, B,> B, (3(C B,) C | 
A,2A,4 ||  
[M:2/4]B,> B, (3(C B,) B, ||  
[M:3/4]A,2(3A, E, C,E,2 ||  
[M:2/4]A,3C | 
E,4 | 
C, C, C, B,, | 
A,,4 |]  



